outputs/icons/general/home_sync_round.svg

<svg xmlns="http://www.w3.org/2000/svg" width="1200" height="1200" fill="none"><g clip-path="url(#a)"><path fill="#000" d="M475 1000V700h200v300h250V600h150L575 150 75 600h150v400z"/></g><defs><clipPath id="a"><path fill="#fff" d="M0 0h1200v1200H0z"/></clipPath></defs></svg>

<svg width="1200" height="1200" viewBox="0 0 1200 1200" fill="none" xmlns="http://www.w3.org/2000/svg"><g clip-path="url(#clip0_8222_154)"><path d="M475 1000V700H675V1000H925V600H1075L575 150L75 600H225V1000H475Z" fill="#1D1E23"/></g><defs><clipPath id="clip0_8222_154"><path width="24" fill="white" d="M0 0H1200V1200H0V0z"/></clipPath></defs></svg>
